svgs/sharp-light/transporter-4.svg

<svg xmlns="http://www.w3.org/2000/svg" viewBox="0 0 512 512"><!--! Font Awesome Pro 6.6.0 by @fontawesome - https://fontawesome.com License - https://fontawesome.com/license (Commercial License) Copyright 2024 Fonticons, Inc. --><path d="M208 0l16 0 64 0 16 0 0 32-16 0-64 0-16 0 0-32zm0 64l16 0 64 0 16 0 0 32-16 0-64 0-16 0 0-32zm-48 64l16 0 160 0 16 0 0 32-16 0-160 0-16 0 0-32zm-32 64l16 0 224 0 16 0 0 32-16 0-224 0-16 0 0-32zM96 256l16 0 288 0 16 0 0 32-16 0-288 0-16 0 0-32zm64 64l16 0 160 0 16 0 0 32-16 0-160 0-16 0 0-32zm0 64l16 0 160 0 16 0 0 32-16 0-160 0-16 0 0-32zM96 448l16 0 288 0 16 0 0 16 0 32 0 16-32 0 0-16 0-16-256 0 0 16 0 16-32 0 0-16 0-32 0-16zM480 144l0 16 16 0 16 0 0 32-16 0-16 0 0 16 0 16-32 0 0-16 0-16-16 0-16 0 0-32 16 0 16 0 0-16 0-16 32 0 0 16zM64 368l0 16 16 0 16 0 0 32-16 0-16 0 0 16 0 16-32 0 0-16 0-16-16 0L0 416l0-32 16 0 16 0 0-16 0-16 32 0 0 16z"/></svg>

<svg xmlns="http://www.w3.org/2000/svg" viewBox="0 0 512 512"><!--! Font Awesome Pro 6.4.2 by @fontawesome - https://fontawesome.com License - https://fontawesome.com/license (Commercial License) Copyright 2023 Fonticons, Inc. --><path d="M208 0h16 64 16V32H288 224 208V0zm0 64h16 64 16V96H288 224 208V64zm-48 64h16H336h16v32H336 176 160V128zm-32 64h16H368h16v32H368 144 128V192zM96 256h16H400h16v32H400 112 96V256zm64 64h16H336h16v32H336 176 160V320zm0 64h16H336h16v32H336 176 160V384zM96 448h16H400h16v16 32 16H384V496 480H128v16 16H96V496 464 448zM480 144v16h16 16v32H496 480v16 16H448V208 192H432 416V160h16 16V144 128h32v16zM64 368v16H80 96v32H80 64v16 16H32V432 416H16 0V384H16 32V368 352H64v16z"/></svg>
